X:168
T:Garfield's Blackberry Blossom
C:David Benedict
N:Transcribed by Larry Tanner
R:bluegrass
L:1/8
Q:1/4=200
M:4/4
K:C
z7/1[^f_B] | "G"[gB]a ge "F"fg fe | "G"dc Bd cB G2 | ge ge "F"fd Bc | "D"dg2^f "G"[g2d2] ga | 
_ba gf "F"ag fc | "G"dc fc dc BF | GB GF (3DFD CF | "D"D[^F_B,] [G=B,][GB,] "G"[G3B,3][^f_B] | 
"G"[gB]a ge "F"fg fe | "G"dc Bd cB G2 | ge ge "F"fd Bc | "D"dg fa "G"g2 ga | _ba gf "F"ag fc | 
"G"dc fc dc BF | GB GF (3DFD CF | "D"D[^F_B,] [G=B,][GB,] "G"[G4B,4] | "Chorus "GA Bc d2 f2 | 
dc Bd cB G2 | GA Bc d2 fc | "D"dc BG "G"z[GB,] [G2B,2] | GA Bc d2 fc | dc Bd cB G2 | 
(3BcB GF DC FC | "D"DF GA "G"GD F^F | GA Bc d2 f2 | dc Bd cB G2 | GA Bc d2 fc | 
"D"dc BG "G"z[GB,] [G2B,2] | GA Bc df z^f | dc Bd cB G2 | (3BcB GF DC FC | "D"DF GF "G"G2 [^F_B,][G=B,] | 


